public/assets/leaves.svg

<svg width="500" height="500" viewBox="0 0 500 500" fill="none" xmlns="http://www.w3.org/2000/svg">
<path d="M32.7611 109.395C50.949 151.697 81.6538 193.539 124.62 211.574C129.525 213.618 135.094 215.151 140.816 216.428C152.26 199.364 165.39 185.518 180.768 174.177C193.999 164.47 207.845 156.858 222.099 150.88C218.011 148.019 213.72 145.413 209.224 143.063C191.343 133.713 171.98 125.488 153.128 116.649C170.856 121.452 191.189 123.24 208.151 129.422C218.727 133.305 228.485 138.67 237.579 145.056C264.708 135.808 293.063 131.363 321.366 127.992C298.427 89.8791 249.483 59.2764 212.596 45.4311C174.074 30.9722 130.444 29.1841 87.5797 24.7398C61.3197 22.0316 32.7606 12.2229 11.865 0.77881C7.11363 -1.82676 2.05576 2.51586 3.69063 7.77808C13.9601 40.6282 19.1713 77.8214 32.7611 109.395Z" fill="#CEE5D0"/>
<path d="M485.671 104.388C437.34 130.648 381.908 133.866 327.6 140.099C301.085 143.165 274.824 146.945 249.841 154.507C244.426 156.141 239.011 157.981 233.697 160.024C217.91 166.053 202.685 173.972 188.329 184.547C174.842 194.458 163.806 206.209 154.508 219.135C139.692 239.775 129.372 263.531 120.891 288.208C105.411 333.013 98.3094 380.629 99.6888 427.989C100.251 447.199 100.557 467.175 105.309 485.925C106.382 490.063 107.403 495.325 110.622 498.39C114.811 502.426 122.322 498.288 120.636 492.413C108.476 450.979 116.038 402.547 132.846 362.952C152.158 317.431 189.453 290.353 235.025 273.852C247.133 269.458 259.498 265.626 272.065 261.999C272.321 261.897 272.576 261.897 272.831 261.897C275.335 261.897 276.408 265.575 273.802 266.751C258.986 273.444 244.272 280.188 230.273 287.493C161.711 323.256 131.773 406.532 157.471 406.532C159.566 406.532 162.018 405.97 164.828 404.795C204.473 388.395 251.578 388.243 295.157 380.17C310.484 377.36 325.402 373.529 339.401 367.704C394.987 344.51 434.734 299.142 458.388 244.579C476.014 203.86 482.86 155.785 496.195 113.482C497.932 108.067 494.1 103.418 489.4 103.418C488.226 103.366 486.948 103.673 485.671 104.388Z" fill="#CEE5D0"/>
</svg>

<svg width="500" height="500" fill="none" xmlns="http://www.w3.org/2000/svg"><path d="M32.761 109.395c18.188 42.302 48.893 84.144 91.859 102.179 4.905 2.044 10.474 3.577 16.196 4.854 11.444-17.064 24.574-30.91 39.952-42.251 13.231-9.707 27.077-17.319 41.331-23.297a116.726 116.726 0 0 0-12.875-7.817c-17.881-9.35-37.244-17.575-56.096-26.414 17.728 4.803 38.061 6.591 55.023 12.773 10.576 3.883 20.334 9.248 29.428 15.634 27.129-9.248 55.484-13.693 83.787-17.064-22.939-38.113-71.883-68.716-108.77-82.56-38.522-14.46-82.152-16.248-125.016-20.692C61.32 22.032 32.76 12.223 11.865.779c-4.751-2.606-9.81 1.737-8.174 7 10.27 32.85 15.48 70.042 29.07 101.616Z" fill="#CEE5D0"/><path d="M485.671 104.388c-48.331 26.26-103.763 29.478-158.071 35.711-26.515 3.066-52.776 6.846-77.759 14.408a231.256 231.256 0 0 0-16.144 5.517c-15.787 6.029-31.012 13.948-45.368 24.523-13.487 9.911-24.523 21.662-33.821 34.588-14.816 20.64-25.136 44.396-33.617 69.073-15.48 44.805-22.582 92.421-21.202 139.781.562 19.21.868 39.186 5.62 57.936 1.073 4.138 2.094 9.4 5.313 12.465 4.189 4.036 11.7-.102 10.014-5.977-12.16-41.434-4.598-89.866 12.21-129.461 19.312-45.521 56.607-72.599 102.179-89.1 12.108-4.394 24.473-8.226 37.04-11.853.256-.102.511-.102.766-.102 2.504 0 3.577 3.678.971 4.854-14.816 6.693-29.53 13.437-43.529 20.742-68.562 35.763-98.5 119.039-72.802 119.039 2.095 0 4.547-.562 7.357-1.737 39.645-16.4 86.75-16.552 130.329-24.625 15.327-2.81 30.245-6.641 44.244-12.466 55.586-23.194 95.333-68.562 118.987-123.125 17.626-40.719 24.472-88.794 37.807-131.097 1.737-5.415-2.095-10.064-6.795-10.064-1.174-.052-2.452.255-3.729.97Z" fill="#CEE5D0"/></svg>
